X: 30482
M: 6/8
L: 1/8
K: Bb
|: z |\
[c2A2]f [d2B2]f | ede c2e | [d2B2]b e2b | f=ef d2f |\
bag fed | cgf edc | Bdf c2d | [B2D2][BD] [B2D2] :|


